X: 10044
T: JERRY'S JIG
C: Bob McQuillen 23 Oct 93
B: Bob's Note Book 10 #44
%R: jig
Z: 2020 John Chambers <jc:trillian.mit.edu>
M: 6/8
L: 1/8
K: G
D \
| GAB A2B | GBd d2c | Bdg dBG | cBc AFD |\
| GAB AGF | GBd edc | Bdg dcB | A3  G2 :|
|: B \
| dBd edB | dBd g2e | dfg afe | dga bge |\
| dBd edB | dBd g2d | ege dgb | a3  g2 :|
%%begintext align
%% I've known Jerry Weene for years and
%% more years - at least since the blue Canterbury record and probably before - Jerry's
%% into fiddle sales and service (as well as being a real fine fiddler himself), and he has a
%% shop in Waltham, MA, called Artisan's Violin. Sometimes before long a bunch of us
%% are going to have a Canterbury concert down there, and it's going to be real nice
%% to play music with you again, Jerry -- Best wishes always to you --
%%endtext

%%sep 1 1 500

%%sep 1 1 500

